X: 21773
T: King Of The Pipers
R: jig
M: 6/8
K: Dmixolydian
|:cAG A2D|DED AdB|cAG A2D|DED GED|
cAG A2D|DED AGE|FDF E^CE|DEF GED:|
K: Dmaj
|:d2e fdf|ecA AFA|dcd efg|f/g/af gfe|
d2e fdf|ecA AGE|FDF E^CE|DEF GED:|
K: Dmix
|:B2G AGA|BGE Edc|B2G AGE|GED Ddc|
B2G AGA|BGE Ed^c|d^cd ABG|1 FDD Ddc:|2 FAD DdB||

